!!!SOCIAL_FUNCTION:	songs of personal narratives concerning war
!!!PDT:	1918

Specific Region: Dakotas, Minnesota, Montana, Nebraska
!!!REG: Dakotas and Montana
!!!LING_GROUP: Siouan
!!!LANG: Tone
!!!OTL@ENG: I Intend to Take His Horses
!!!ONM: No. 169
**kern
*Imale
*clefF4
*k[f#c#]
*M3/4
*MM80
4d
[4d
8.d]
16A
=1||
*M2/4
4d
8.e
16d
=2||
*M3/4
8.A
16A
16d
[8.A
4A]
=3
12A
12A
12d
16d
8.A
16G
8.G
=4
12A
12E
12D
12D
12D
12AA
8.D
16E
=5
8E
8D
8D
8C#
8.AA
16AA
=6||
*M2/4
4.AA
8AA
=7
2AA
=8||
*M3/4
8A
8A
8A
8d
4A
=9
8.A
16A
8A
8d
8.A
16A
=10||
*M2/4
8G
8G
8G
16G
16G
=11||
*M5/8
8G
8A
8E
8D
8D
=12
8D
8AA
8D
8D
16D
16D
=13||
*M3/4
8E
8E
8E
8D
(8D
8C#)
=14
8.AA
16AA
2AA
=15
2.AA
==
*-
!!!CNT: Native American -- Sioux
!!!MRD: 1911/07//-1914///
!!!OCL: Frances Densmore
!!!YOR1: Teton Sioux Music, Bulletin 61,
!!!YOR2: Bureau of American Ethnology, Smithsonian Institution
!!!PPR: Government Printing Office
!!!PPP: Washington, D.C.
!!!PDT: 1918///
!!!ENC: Craig Stuart Sapp
!!!END: 2002/03/25/
!!!EEV: 2002/03/31/
!!!AGN: War Song/Song of Personal Narrative Concerning War
!!!MPN@@SIO: Wangbli'-waha'chungka
!!!MPN@ENG: Eagle Shield
!!!TXO: Teton Sioux
!!!MLC: Standing Rock Reservation, South Dakota, United States of America
!!!ARL: 45.9/-100.7#
!!!catalog: Catalogue No. 522
!!!PPG: 402
!!!EFL: 174/245
!!!VTS: 1463724150
